picto/funicular-railway-right.svg

<svg class="color-immutable" width="24" height="24" viewBox="0 0 24 24" fill="none" xmlns="http://www.w3.org/2000/svg"><g clip-path="url(#a)"><path d="M0 22.5v-21C0 .675.675 0 1.5 0h21c.825 0 1.5.675 1.5 1.5v21c0 .825-.675 1.5-1.5 1.5h-21C.675 24 0 23.325 0 22.5Z" fill="#2D327D"/><path d="M3.375 17.145a.397.397 0 0 0 .091-.011l17.25-4.312a.377.377 0 0 0 .284-.365v-8.61a.825.825 0 0 0-1.029-.799l-16.35 4.17A.825.825 0 0 0 3 8.017v8.753c0 .207.168.375.375.375Zm13.313-12.12c0-.207.168-.375.375-.375h2.812c.207 0 .375.168.375.375v4.5a.375.375 0 0 1-.375.375h-2.812a.375.375 0 0 1-.375-.375v-4.5Zm-4.313 1.102c0-.207.168-.375.375-.375h2.812c.207 0 .375.168.375.375v4.5a.375.375 0 0 1-.375.375H12.75a.375.375 0 0 1-.375-.375v-4.5ZM8.062 7.225c0-.207.168-.375.375-.375h2.813c.207 0 .375.168.375.375v4.5a.375.375 0 0 1-.375.375H8.438a.375.375 0 0 1-.375-.375v-4.5h-.001Zm-4.312 1.1c0-.207.168-.375.375-.375h2.812c.207 0 .375.168.375.375v4.5a.375.375 0 0 1-.375.375H4.125a.375.375 0 0 1-.375-.375v-4.5ZM21 15.727l-18 4.5V21l18-4.5v-.773ZM7.179 17.399a1.088 1.088 0 1 0 2.177-.001 1.088 1.088 0 0 0-2.177.001ZM4.473 18.131a1.088 1.088 0 1 0 2.177-.001 1.088 1.088 0 0 0-2.177.001ZM14.618 15.538a1.088 1.088 0 1 0 2.177-.001 1.088 1.088 0 0 0-2.177.001ZM17.38 14.861a1.088 1.088 0 1 0 2.177-.001 1.088 1.088 0 0 0-2.177.001Z" fill="#fff"/></g><defs><clipPath id="a"><path fill="#fff" d="M0 0h24v24H0z"/></clipPath></defs></svg>

<svg class="color-immutable" width="24" height="24" viewBox="0 0 24 24" fill="none" xmlns="http://www.w3.org/2000/svg"><path d="M0 22.5V1.5C0 0.675 0.675 0 1.5 0H22.5C23.325 0 24 0.675 24 1.5V22.5C24 23.325 23.325 24 22.5 24H1.5C0.675 24 0 23.325 0 22.5Z" fill="#2D327D"/><path d="M3.375 17.145C3.406 17.145 3.436 17.141 3.466 17.134L20.716 12.822C20.883 12.779 21 12.629 21 12.457V3.847C21 3.392 20.631 3.022 20.175 3.022C20.106 3.022 20.038 3.031 19.971 3.048L3.621 7.218C3.256 7.311 3 7.64 3 8.017V16.77C3 16.977 3.168 17.145 3.375 17.145ZM16.688 5.025C16.688 4.818 16.856 4.65 17.063 4.65H19.875C20.082 4.65 20.25 4.818 20.25 5.025V9.525C20.25 9.732 20.082 9.9 19.875 9.9H17.063C16.856 9.9 16.688 9.732 16.688 9.525V5.025ZM12.375 6.127C12.375 5.92 12.543 5.752 12.75 5.752H15.562C15.769 5.752 15.937 5.92 15.937 6.127V10.627C15.937 10.834 15.769 11.002 15.562 11.002H12.75C12.543 11.002 12.375 10.834 12.375 10.627V6.127ZM8.062 7.225C8.062 7.018 8.23 6.85 8.437 6.85H11.25C11.457 6.85 11.625 7.018 11.625 7.225V11.725C11.625 11.932 11.457 12.1 11.25 12.1H8.438C8.231 12.1 8.063 11.932 8.063 11.725V7.225H8.062ZM3.75 8.325C3.75 8.118 3.918 7.95 4.125 7.95H6.937C7.144 7.95 7.312 8.118 7.312 8.325V12.825C7.312 13.032 7.144 13.2 6.937 13.2H4.125C3.918 13.2 3.75 13.032 3.75 12.825V8.325Z" fill="white"/><path d="M21 15.727L3 20.227V21L21 16.5V15.727Z" fill="white"/><path d="M7.17902 17.399C7.17902 17.999 7.66602 18.487 8.26702 18.487C8.86702 18.487 9.35502 18 9.35502 17.399C9.35502 16.799 8.86802 16.311 8.26702 16.311C7.66602 16.311 7.17902 16.798 7.17902 17.399Z" fill="white"/><path d="M4.47302 18.131C4.47302 18.731 4.96002 19.219 5.56102 19.219C6.16102 19.219 6.64902 18.732 6.64902 18.131C6.64902 17.531 6.16202 17.044 5.56102 17.044C4.96102 17.044 4.47302 17.531 4.47302 18.131Z" fill="white"/><path d="M14.618 15.538C14.618 16.138 15.105 16.626 15.706 16.626C16.306 16.626 16.793 16.139 16.793 15.538C16.793 14.938 16.306 14.45 15.706 14.45C15.105 14.45 14.618 14.938 14.618 15.538Z" fill="white"/><path d="M17.38 14.861C17.38 15.461 17.867 15.949 18.468 15.949C19.068 15.949 19.555 15.462 19.555 14.861C19.555 14.261 19.068 13.774 18.468 13.774C17.867 13.774 17.38 14.261 17.38 14.861Z" fill="white"/></svg>
